X:149
T:Sweet Biddy Daly
Z: id:dc-jig-125
M:6/8
L:1/8
K:G Major
g|dBG AGE|GED DEG|AcB AGA|BAA A2g|!
dBG AGE|GED DEG|AcB AGA|BGF G2:|!
A|Bdd cee|Bdd dBG|Bdd dge|dBG A2G|!
Bdd cee|Bdd dBG|AcB AGA|BGF G2:|!

